editor/gtk/pioneers-editor.svg

<?xml version="1.0" encoding="UTF-8" standalone="no"?>
<!-- Created with Sodipodi ("http://www.sodipodi.com/") -->

<svg
   xmlns:dc="http://purl.org/dc/elements/1.1/"
   xmlns:cc="http://creativecommons.org/ns#"
   xmlns:rdf="http://www.w3.org/1999/02/22-rdf-syntax-ns#"
   xmlns:svg="http://www.w3.org/2000/svg"
   xmlns="http://www.w3.org/2000/svg"
   xmlns:xlink="http://www.w3.org/1999/xlink"
   xmlns:sodipodi="http://sodipodi.sourceforge.net/DTD/sodipodi-0.dtd"
   xmlns:inkscape="http://www.inkscape.org/namespaces/inkscape"
   version="1.0"
   x="0"
   y="0"
   width="48"
   height="48"
   id="svg620"
   xml:space="preserve"
   inkscape:version="0.48.3.1 r9886"
   sodipodi:docname="pioneers-editor.svg"><metadata
   id="metadata36"><rdf:RDF><cc:Work
       rdf:about=""><dc:format>image/svg+xml</dc:format><dc:type
         rdf:resource="http://purl.org/dc/dcmitype/StillImage" /><dc:title /><cc:license
         rdf:resource="http://creativecommons.org/licenses/by-sa/3.0/" /><dc:creator><cc:Agent><dc:title>Roland Clobus</dc:title></cc:Agent></dc:creator><dc:contributor><cc:Agent><dc:title>The pencil is taken from the image 'edit-find-replace.svg' from the GNOME icon theme 'Gorilla' (http://art.gnome.org/themes/icon/1297) which is created by Jakub Steiner (CC-BY-SA). </dc:title></cc:Agent></dc:contributor><dc:description>Icon for the Pioneers editor.
The colours are similar to the colours in the Classic theme.</dc:description></cc:Work><cc:License
       rdf:about="http://creativecommons.org/licenses/by-sa/3.0/"><cc:permits
         rdf:resource="http://creativecommons.org/ns#Reproduction" /><cc:permits
         rdf:resource="http://creativecommons.org/ns#Distribution" /><cc:requires
         rdf:resource="http://creativecommons.org/ns#Notice" /><cc:requires
         rdf:resource="http://creativecommons.org/ns#Attribution" /><cc:permits
         rdf:resource="http://creativecommons.org/ns#DerivativeWorks" /><cc:requires
         rdf:resource="http://creativecommons.org/ns#ShareAlike" /></cc:License></rdf:RDF></metadata><sodipodi:namedview
   pagecolor="#ffffff"
   bordercolor="#666666"
   borderopacity="1"
   objecttolerance="10"
   gridtolerance="10"
   guidetolerance="10"
   inkscape:pageopacity="0"
   inkscape:pageshadow="2"
   inkscape:window-width="1920"
   inkscape:window-height="997"
   id="namedview34"
   showgrid="false"
   inkscape:zoom="16.645833"
   inkscape:cx="24"
   inkscape:cy="24"
   inkscape:window-x="0"
   inkscape:window-y="27"
   inkscape:window-maximized="1"
   inkscape:current-layer="svg620" /><defs
   id="defs622"><linearGradient
     inkscape:collect="always"
     xlink:href="#aigrd3"
     id="linearGradient4316"
     gradientUnits="userSpaceOnUse"
     x1="9.8765001"
     y1="14.6738"
     x2="14.1429"
     y2="11.3717" /><linearGradient
     inkscape:collect="always"
     xlink:href="#aigrd4"
     id="linearGradient4318"
     gradientUnits="userSpaceOnUse"
     x1="6.8955002"
     y1="7.9990001"
     x2="7.7719998"
     y2="7.4439001" /></defs>


<g
   id="g4868"
   transform="matrix(0.99351021,0,0,0.99351021,0.21842643,0.31252722)"><path
     d="m 12.229849,7.102321 11.70707,-6.75908358 11.70707,6.75908358 0,13.518148 -11.70707,6.759082 -11.70707,-6.759082 0,-13.518148 z"
     style="font-size:12px;fill:#800000;fill-rule:evenodd;stroke:#000000;stroke-width:1;stroke-miterlimit:4;stroke-dasharray:none"
     id="path616"
     inkscape:connector-curvature="0" /><path
     d="m 35.643989,20.620469 11.70705,6.759082 0,13.518148 -11.70705,6.759083 -11.70707,-6.759083 0,-13.518148 11.70707,-6.759082 z"
     style="font-size:12px;fill:#008000;fill-rule:evenodd;stroke:#000000;stroke-width:1;stroke-miterlimit:4;stroke-dasharray:none"
     id="path617"
     inkscape:connector-curvature="0" /><path
     d="m 12.229849,20.619457 -11.7070497,6.759331 0,13.518644 11.7070497,6.759331 11.70707,-6.759331 0,-13.518644 -11.70707,-6.759331 z"
     style="font-size:12px;fill:#c37f41;fill-rule:evenodd;stroke:#000000;stroke-width:1;stroke-miterlimit:4;stroke-dasharray:none"
     id="path618"
     inkscape:connector-curvature="0" /><ellipse
     cx="276.17334"
     cy="538.58264"
     rx="30.685928"
     ry="17.716522"
     transform="matrix(0.15541021,0,0,0.26917835,-7.2761818,-110.83615)"
     style="font-size:12px;fill:#ffdab9;fill-rule:evenodd;stroke:#000000;stroke-width:4.88922644;stroke-miterlimit:4;stroke-dasharray:none"
     id="path624"
     d="m 306.85927,538.58264 c 0,9.78457 -13.73856,17.71652 -30.68593,17.71652 -16.94737,0 -30.68593,-7.93195 -30.68593,-17.71652 0,-9.78456 13.73856,-17.71652 30.68593,-17.71652 16.94737,0 30.68593,7.93196 30.68593,17.71652 z"
     sodipodi:cx="276.17334"
     sodipodi:cy="538.58264"
     sodipodi:rx="30.685928"
     sodipodi:ry="17.716522" /><ellipse
     cx="276.17334"
     cy="538.58264"
     rx="30.685928"
     ry="17.716522"
     transform="matrix(0.15541021,0,0,0.26917835,-30.690297,-110.83615)"
     style="font-size:12px;fill:#ffdab9;fill-rule:evenodd;stroke:#000000;stroke-width:4.88922644;stroke-miterlimit:4;stroke-dasharray:none"
     id="path625"
     d="m 306.85927,538.58264 c 0,9.78457 -13.73856,17.71652 -30.68593,17.71652 -16.94737,0 -30.68593,-7.93195 -30.68593,-17.71652 0,-9.78456 13.73856,-17.71652 30.68593,-17.71652 16.94737,0 30.68593,7.93196 30.68593,17.71652 z"
     sodipodi:cx="276.17334"
     sodipodi:cy="538.58264"
     sodipodi:rx="30.685928"
     sodipodi:ry="17.716522" /><ellipse
     cx="276.17334"
     cy="538.58264"
     rx="30.685928"
     ry="17.716522"
     transform="matrix(0.15541021,0,0,0.26917835,-18.775459,-131.11338)"
     style="font-size:12px;fill:#ffdab9;fill-rule:evenodd;stroke:#000000;stroke-width:4.88922644;stroke-miterlimit:4;stroke-dasharray:none"
     id="path626"
     d="m 306.85927,538.58264 c 0,9.78457 -13.73856,17.71652 -30.68593,17.71652 -16.94737,0 -30.68593,-7.93195 -30.68593,-17.71652 0,-9.78456 13.73856,-17.71652 30.68593,-17.71652 16.94737,0 30.68593,7.93196 30.68593,17.71652 z"
     sodipodi:cx="276.17334"
     sodipodi:cy="538.58264"
     sodipodi:rx="30.685928"
     sodipodi:ry="17.716522" /><text
     x="22.256214"
     y="16.216867"
     style="font-size:6.86722279px;font-weight:normal;fill:#ff0000;stroke-width:1;font-family:FreeSans"
     id="text627"><tspan
       id="tspan628">8</tspan></text>
<text
     x="10.348242"
     y="36.573071"
     style="font-size:6.86722279px;font-weight:normal;stroke-width:1;font-family:FreeSans"
     id="text630"><tspan
       id="tspan631">4</tspan></text>
<text
     x="33.765789"
     y="36.494095"
     style="font-size:6.86722279px;font-weight:normal;stroke-width:1;font-family:FreeSans"
     id="text633"><tspan
       id="tspan634">9</tspan></text>
</g><g
   transform="matrix(-1.1203054,-1.9404248,1.9404248,-1.1203054,23.365396,58.13229)"
   style="font-size:12px;stroke:#000000"
   id="Layer_x0020_5"><path
     inkscape:connector-curvature="0"
     d="m 6.4,6.6 5.6,3 6,8.1 L 17.9,19 16.5,20.4 15,20.2 8.7,12.5 6.4,6.6 z"
     style="fill:none;stroke-width:1.84150004;stroke-linecap:round;stroke-linejoin:round"
     id="path795" /><linearGradient
     x1="9.8765001"
     y1="14.6738"
     x2="14.1429"
     y2="11.3717"
     id="aigrd3"
     gradientUnits="userSpaceOnUse"><stop
       style="stop-color:#eff0ce;stop-opacity:1;"
       offset="0"
       id="stop797" /><stop
       style="stop-color:#ffffff;stop-opacity:1;"
       offset="0.5"
       id="stop798" /><stop
       style="stop-color:#eff0ce;stop-opacity:1;"
       offset="1"
       id="stop799" /></linearGradient><path
     inkscape:connector-curvature="0"
     d="m 6.4,6.6 5.6,3 6,8.1 L 17.9,19 16.5,20.4 15,20.2 8.7,12.5 6.4,6.6 z"
     style="fill:url(#linearGradient4316);stroke:none"
     id="path800" /><path
     inkscape:connector-curvature="0"
     d="M 10.6,13 16.4,20.3 15,20.2 8.7,12.5 10.6,13 z"
     style="fill:#e0c35d;stroke:none"
     id="path801" /><path
     inkscape:connector-curvature="0"
     d="m 12.2,11.5 5.7,7.4 -1.4,1.4 -5.9,-7.3 1.5,-1.5 0.1,0 z"
     style="fill:#c8af53;stroke:none"
     id="path802" /><path
     inkscape:connector-curvature="0"
     d="m 11.9,9.6 6,8.1 -0.1,1.3 -5.7,-7.4 -0.2,-2 0,0 z"
     style="fill:#f7e46e;stroke:none"
     id="path803" /><linearGradient
     x1="6.8955002"
     y1="7.9990001"
     x2="7.7719998"
     y2="7.4439001"
     id="aigrd4"
     gradientUnits="userSpaceOnUse"><stop
       style="stop-color:#000000;stop-opacity:1;"
       offset="0"
       id="stop805" /><stop
       style="stop-color:#616061;stop-opacity:1;"
       offset="0.5"
       id="stop806" /><stop
       style="stop-color:#000000;stop-opacity:1;"
       offset="1"
       id="stop807" /></linearGradient><path
     inkscape:connector-curvature="0"
     d="m 8.9,7.9 c 0,0.9 -0.5,1.4 -1.4,1.4 l -1.1,-2.7 2.5,1.3 0,0 z"
     style="fill:url(#linearGradient4318);stroke:none"
     id="path808" /></g></svg>

<?xml version="1.0" encoding="UTF-8" standalone="no"?>
<!DOCTYPE svg PUBLIC "-//W3C//DTD SVG 1.0//EN"
"http://www.w3.org/TR/2001/REC-SVG-20010904/DTD/svg10.dtd">
<!-- Created with Sodipodi ("http://www.sodipodi.com/") -->
<svg
   xmlns="http://www.w3.org/2000/svg"
   xmlns:xlink="http://www.w3.org/1999/xlink"
   version="1.0"
   x="0"
   y="0"
   width="354.330688"
   height="354.330688"
   id="svg620"
   xml:space="preserve"><defs
   id="defs622" /><g
   transform="matrix(1.38939,0,0,1.38939,-162.8163,-618.7101)"
   style="font-size:12;"
   id="g638"><path
   d="M 184.1155 485.4331 L 245.4874 450 L 306.8593 485.4331 L 306.8593 556.2992 L 245.4874 591.7323 L 184.1155 556.2992 L 184.1155 485.4331 z "
   style="fill:#800000;fill-rule:evenodd;stroke:#000000;stroke-width:3.5433;"
   id="path616" /><path
   d="M 306.8593 556.2992 L 368.2311 591.7323 L 368.2311 662.5984 L 306.8593 698.0315 L 245.4874 662.5984 L 245.4874 591.7323 L 306.8593 556.2992 z "
   style="fill:#008000;fill-rule:evenodd;stroke:#000000;stroke-width:3.5433;"
   id="path617" /><path
   d="M 184.1155 556.2939 L 122.7437 591.7283 L 122.7437 662.597 L 184.1155 698.0314 L 245.4874 662.597 L 245.4874 591.7283 L 184.1155 556.2939 z "
   style="fill:#c37f41;fill-rule:evenodd;stroke:#000000;stroke-width:3.543365;"
   id="path618" /><ellipse
   cx="276.17334"
   cy="538.582642"
   rx="30.6859283"
   ry="17.7165222"
   transform="matrix(0.814706,0,0,1.411112,81.85915,-132.835)"
   style="fill:#ffdab9;fill-rule:evenodd;stroke:#000000;stroke-width:1.6523;"
   id="path624" /><ellipse
   cx="276.17334"
   cy="538.582642"
   rx="30.6859283"
   ry="17.7165222"
   transform="matrix(0.814706,0,0,1.411112,-40.88452,-132.835)"
   style="fill:#ffdab9;fill-rule:evenodd;stroke:#000000;stroke-width:1.6523;"
   id="path625" /><ellipse
   cx="276.17334"
   cy="538.582642"
   rx="30.6859283"
   ry="17.7165222"
   transform="matrix(0.814706,0,0,1.411112,21.57656,-239.1342)"
   style="fill:#ffdab9;fill-rule:evenodd;stroke:#000000;stroke-width:1.6523;"
   id="path626" /><text
   x="95.3142548"
   y="212.637573"
   transform="translate(141.3132,320.9463)"
   style="font-size:36;font-weight:normal;fill:#ff0000;stroke-width:1;font-family:FreeSans;"
   id="text627"><tspan
   id="tspan628">8</tspan></text><text
   x="70.7458191"
   y="254.86348"
   transform="translate(104.0006,385.1866)"
   style="font-size:36;font-weight:normal;stroke-width:1;font-family:FreeSans;"
   id="text630"><tspan
   id="tspan631">4</tspan></text><text
   x="88.1663055"
   y="224.654419"
   transform="translate(208.7261,415.2287)"
   style="font-size:36;font-weight:normal;stroke-width:1;font-family:FreeSans;"
   id="text633"><tspan
   id="tspan634">9</tspan></text></g><g
   transform="matrix(-8.159846,-14.13326,14.13326,-8.159846,174.0987,427.4272)"
   style="font-size:12;stroke:#000000;"
   id="Layer_x0020_5"><path
   d="M 6.4 6.6 L 12 9.6 L 18 17.7 L 17.9 19 L 16.5 20.4 L 15 20.2 L 8.7 12.5 L 6.4 6.6 z "
   style="fill:none;stroke-width:1.8415;stroke-linecap:round;stroke-linejoin:round;"
   id="path795" /><linearGradient
   x1="9.87650013"
   y1="14.6738005"
   x2="14.1429005"
   y2="11.3717003"
   id="aigrd3"
   gradientUnits="userSpaceOnUse"><stop
   style="stop-color:#eff0ce;stop-opacity:1;"
   offset="0"
   id="stop797" /><stop
   style="stop-color:#ffffff;stop-opacity:1;"
   offset="0.5"
   id="stop798" /><stop
   style="stop-color:#eff0ce;stop-opacity:1;"
   offset="1"
   id="stop799" /></linearGradient><path
   d="M 6.4 6.6 L 12 9.6 L 18 17.7 L 17.9 19 L 16.5 20.4 L 15 20.2 L 8.7 12.5 L 6.4 6.6 z "
   style="fill:url(#aigrd3);stroke:none;"
   id="path800" /><path
   d="M 10.6 13 L 16.4 20.3 L 15 20.2 L 8.7 12.5 L 10.6 13 z "
   style="fill:#e0c35d;stroke:none;"
   id="path801" /><path
   d="M 12.2 11.5 L 17.9 18.9 L 16.5 20.3 L 10.6 13 L 12.1 11.5 L 12.2 11.5 z "
   style="fill:#c8af53;stroke:none;"
   id="path802" /><path
   d="M 11.9 9.6 L 17.9 17.7 L 17.8 19 L 12.1 11.6 L 11.9 9.6 L 11.9 9.6 z "
   style="fill:#f7e46e;stroke:none;"
   id="path803" /><linearGradient
   x1="6.89550018"
   y1="7.99900007"
   x2="7.77199984"
   y2="7.44390011"
   id="aigrd4"
   gradientUnits="userSpaceOnUse"><stop
   style="stop-color:#000000;stop-opacity:1;"
   offset="0"
   id="stop805" /><stop
   style="stop-color:#616061;stop-opacity:1;"
   offset="0.5"
   id="stop806" /><stop
   style="stop-color:#000000;stop-opacity:1;"
   offset="1"
   id="stop807" /></linearGradient><path
   d="M 8.9 7.9 C 8.9 8.8 8.4 9.3 7.5 9.3 L 6.4 6.6 L 8.9 7.9 L 8.9 7.9 z "
   style="fill:url(#aigrd4);stroke:none;"
   id="path808" /></g><g
   transform="translate(55.26862,-23.22408)"
   style="font-size:12;stroke:#000000;"
   id="Layer_x0020_6"><path
   d="M 24 24 L 0 24 L 0 0 L 24 0 L 24 24 z "
   style="fill:none;stroke:none;"
   id="path810" /></g></svg>
